X:1
T:Occhi vibrate
T:Occhi vibrate
T:Gio.Girolamo Kapsperger
C:Gio.Girolamo Kapsperger
%%score [ 1 2 3 ] { ( 4 6 ) | 5 }
L:1/8
Q:1/4=120
M:3/2
K:F
V:1 treble nm="Soprano 1" snm="S 1"
V:2 treble nm="Soprano 2" snm="S 2"
V:3 bass nm="Bass" snm="B"
V:4 treble nm="BC" snm="BC"
V:6 treble 
V:5 bass 
V:1
 A4 B4 c4 | A8 A4 | B4 B4 A4 | G8 G4 | c4 c4 B4 | A6 Bc d4 | c4 G8 | F12 :: B4 B4 c4 | d6 _e2 d4 | %10
w: Oc- chi vi-|bra- te|i dol- ci'ar-|do- ri|che fiam- me|son di _ mil-|le co-|ri,|l'er- bet- te|te- ne- re|
w: Fiam- me ri-|den- ti|voi de le|stel- le|piu se- re-|ne plen- * den-|t'e bel-|le,|qua- lor piu|fe- rui- di|
 (c2 B2) (c2 B2) (A2 =B2) | G6 A2 G4 | d4 d4 d4 | c6 _e2 d4 | c4 c6 c2 | B6 c2 B4 | F4 F4 G4 | %17
w: lie- * te _ vinc- *|chi- na- no,|e l'au- re'a-|ma- bi- li|per voi so-|spi- ra- no,|ge- mer non|
w: i _ cie- * li _|gi- ra- no,|stu- pi- di|fer- na- no|il cor- so'e|mi- ra- no,|ma per- che|
 A6 B2 A4 | A4 A4 =B4 | c6 d2 c4 | G4 G4 A4 | B6 B2 c4 | d4 c2 B2 A4 | G6 A2 G4 :: B4 B4 c4 | %25
w: s'o- do- no|con vo- ce|que- ru- la|gl'au- gei ma|le- pi- di,|la lin- * gua|sno- da- no,|cru- do'e quel|
w: spie- ghi- no|mil- le'oc- chi'e|vol- ghi- no|non e che|mi- ri- no|bel- ta _ piu|splen- di- da,|cru- do'e quel|
 A4 A4 B4 | G8 A4 | F4 F4 c4 | B8 B4 | A6 Bc d4 | c4 G8 | F12 :| %32
w: co- re che|puo mi-|ra- rui be-|gloc- chi|ca- ri'e _ non|a- ma-|rui.|
w: co- re che|puo mi-|ra- rui lu-|ci'a- mo-|ro- s'et _ non|a- ma-|rui.|
V:2
 F4 D4 E4 | ^F8 F4 | G4 G4 F4 | E8 E4 | A4 A4 G4 | F6 GA B4 | F4 (F6 E2) | F12 :: G4 G4 A4 | %9
w: Oc- chi vi-|bra- te|i dol- ci'ar-|do- ri|che fiam- me|son di _ mil-|le co- *|ri,|l'er- bet- te|
w: Fiam- me ri-|den- ti|voi de le|stel- le|che se- re-|ne splen- * den-|t'e bel- *|le,|qua- lor piu|
 B6 c2 B4 | (A2 G2) (^F2 E2) F4 | G6 ^F2 G4 | B4 B4 G4 | A6 c2 B4 | B4 B6 A2 | B6 A2 B4 | %16
w: te- ne- re|lie- * te _ vinc-|chi- na- no,|e l'au- re'a-|ma- bi- li|per voi so-|spi- ra- no,|
w: fe- rui- di|i _ cie- * li|gi- ra- no,|stu- pi- di|fer- na- no|il co- re|mi- ra- no,|
 D4 D4 E4 | F6 G2 F4 | C4 C4 D4 | E6 F2 E4 | E4 E4 ^F4 | G6 G2 E4 | G4 G4 ^F4 | G6 ^F2 G4 :: %24
w: ge- mer non|s'o- do- no|con vo- ce|que- ru- la|gl'au- gei ma|le- pi- di,|la lin- gua|sno- da- no,|
w: ma per- che|spie- ghi- no|mil- le'oc- chi'e|vol- ghi- no|non e che|mi- ri- no|bel- ta piu|splen- di- da,|
 D4 D4 E4 | F4 C4 F4 | _E8 E4 | D4 D4 F4 | D8 E4 | F6 GA B4 | F4 (F6 E2) | F12 :| %32
w: cru- do'e quel|co- re che|puo mi-|ra- rui be-|gloc- chi|ca ri'e _ non|a- ma- *|rui.|
w: cru- do'e quel|co- re che|puo mi-|ra- rui lu-|ci'a- mo-|ro- s'et _ non|a- ma- *|rui.|
V:3
 F,4 G,4 C,4 | D,8 D,4 | G,,4 G,,4 (A,,2 B,,2) | C,8 C,4 | A,,4 A,,4 (B,,2 C,2) | D,6 C,2 B,,4 | %6
w: Oc- chi vi-|bra- te|i dol- ci'ar- *|do- ri|che fiam- me _|son di mil-|
w: Fiam- me ri-|den- ti|voi de le _|stel- le|che se- re- *|ne splen- den-|
 A,,4 C,8 | F,,12 :: _E,4 D,4 C,4 | B,,6 B,,2 B,,4 | _E,4 C,4 D,4 | G,,6 G,,2 G,,4 | G,4 G,4 E,4 | %13
w: le co-|ri,|l'er- bet- te|te- ne- re|lie- te vinc-|chi- na- no,|e l'au- re'a-|
w: t'e bel-|le,|qua- lor piu|fe- rui- di|i cie- li|gi- ra- no,|stu- pi- di|
 F,6 C,2 D,4 | _E,4 F,6 F,2 | B,,6 B,,2 B,,4 | B,4 A,4 G,4 | F,6 F,2 F,4 | F,4 _E,4 D,4 | %19
w: ma- bi- li|per voi so-|spi- ra- no,|ge- mer non|s'o- do- no|con vo- ce|
w: fer- na- no|il co- re|mi- ra- no,|ma per- che|spie- ghi- no|mil- le'oc- chi'e|
 C,6 C,2 C,4 | C,4 B,,4 A,,4 | G,,6 G,,2 A,,4 | B,,4 C,4 D,4 | G,,6 G,,2 G,,4 :: G,4 G,4 C,4 | %25
w: que- ru- la|gl'au- gei ma|le- pi- di,|la lin- gua|sno- da- no,|cru- do'e quel|
w: vol- ghi- no|non e che|mi- ri- no|bel- ta piu|* di- da,|cru- do'e quel|
 F,4 F,4 D,4 | _E,8 C,4 | D,4 D,4 A,,4 | B,,8 G,,4 | D,6 C,2 B,,4 | A,,4 C,8 | F,,12 :| %32
w: co- re che|puo mi-|ra- rui be|gl'oc- chi|ca ri'e non|a- ma-|rui.|
w: co- re che|puo mi-|ra- rui lu-|ci'a- mo-|ro- s'et non|a- ma-|rui|
V:4
 [FAc]4 [DB]4 [EG]4 | [^FA]12 | [DB]8 [FA]4 | [EG]12 | [EAc]8 [DG]4 | [FA]8 [Fd]4 | [Fc]4 [Gce]8 | %7
 [FAc]12 :: [GB]4 [FB]4 [Ac]4 | [DFB]12 | [GB]4 [Gc]4 [^FA]4 | [D=B]12 | [DB]8 [Gc]4 | %13
 [Ac]6 [G_e]2 [FA]4 | [GB]4 [CFA]8 | [DFB]12 | [DF]4 [DF]4 [DB]4 | [Ac]12 | [CA]4 [Gc]4 [G=B]4 | %19
 [EG]12 | [EGc]4 [EG]4 [^FA]4 | [DGB]8 [Ec]4 | [Gd]4 [Gc]4 [^Fd]4 | [DG=B]12 :: [DGB]8 [EG]4 | %25
 [FAc]8 [FA]4 | [GB]8 [_Ec]4 | [FAd]8 [Fc]4 | [DFB]8 [DB]4 | [FA]8 [Fd]4 | c4 c8 | [CFA]12 :| %32
V:5
 F,4 G,4 C,4 | D,12 | G,,8 A,,2 B,,2 | C,12 | A,,8 B,,2 C,2 | D,6 C,2 B,,4 | A,,4 C,8 | F,,12 :: %8
 _E,4 D,4 C,4 | B,,12 | _E,4 C,4 D,4 | G,,12 | G,8 E,4 | F,6 C,2 D,4 | _E,4 F,8 | B,,12 | %16
 B,4 A,4 G,4 | F,12 | F,4 _E,4 D,4 | C,12 | C,4 B,,4 A,,4 | G,,8 A,,4 | B,,4 C,4 D,4 | G,,12 :: %24
 G,8 C,4 | F,8 D,4 | _E,8 C,4 | D,8 A,,4 | B,,8 G,,4 | D,6 C,2 B,,4 | A,,4 [C,G,]8 | F,,12 :| %32
V:6
 x12 | x12 | x12 | x12 | x12 | x12 | x12 | x12 :: x12 | x12 | x12 | x12 | x12 | x12 | x12 | x12 | %16
 x12 | x12 | x12 | x12 | x12 | x12 | x12 | x12 :: x12 | x12 | x12 | x12 | x12 | x12 | F4 F6 A,2 | %31
 x12 :| %32

